X: 18222
T: Humours Of Kiltyclogher, The
R: jig
M: 6/8
K: Adorian
|:B|AGE G2E|cGE EFG|D3 D2E|GED D2B|
AGE G2E|cGE EFG|A3 BGE|A3 A2:|
|:B|c2B c2d|ecA ABc|BAG GA/B/c|dBG GAB|
c2B c2d|ecA ABc|BAG GAB|A3 A2:|

